X: 38
T:The Boys of BlueHill
M:C|
L:1/8
R:Hornpipe
K:D
FA | {Bd}BAFA D2 FA | BA (3Bcd efde | f(a {b}(3a^ga) e=gfe |
dfed B2 AA | {Bd}BAFA DAFA | BA (3Bcd e2 de | fagf (3efg fe |
d2 {e}dc d2 :||: fg | afdf (a{b}a{^g}a)f | (g{a}g{f}g)a b2 ag |
fagf (3efg fe | dfed BcdB | {d}BAFB ADFA | BA (3Bcd efde |
fa {b}(3a^ga e=gfe | d2 {e}dc d2 :||
